X:286
T:Round Robin. (p)1687.PLFD.286
M:6/4
L:1/4
Q:3/4=80
S:Playford, Dancing Master,7th Ed,1st Supp,1687.
O:England
N:Does this work as a Round?Try it and see!.
H:1687.
Z:Chris Partington
K:G
B|c>deB>cd|ABAF>ED|GBGB2G|GBGB2G|
B>ABcEc|BGBAFA|f>efg2d|e>dcB2G:|
